!!!COM: Beethoven, Ludwig van
!!!CDT: 1770///-1827///
!!!OTL: Piano Sonata no. 31 in A-flat major
!!!ODT: 1821///-1822///
!!!OPS: 110
!!!OMV: 2
!!!OMD: Scherzo: Allegro molto
**kern	**kern	**dynam
*staff2	*staff1	*staff1/2
*Ipiano	*Ipiano	*Ipiano
*>[A,A,X,B,B1,B,B2,C,D,D1,D,D2,E]	*>[A,A,X,B,B1,B,B2,C,D,D1,D,D2,E]	*>[A,A,X,B,B1,B,B2,C,D,D1,D,D2,E]
*>norep[A,X,B,B2,C,D,D2,E]	*>norep[A,X,B,B2,C,D,D2,E]	*>norep[A,X,B,B2,C,D,D2,E]
*>A	*>A	*>A
*clefF4	*clefG2	*clefG2
*k[b-e-a-d-]	*k[b-e-a-d-]	*k[b-e-a-d-]
*f:	*f:	*f:
*M2/4	*M2/4	*M2/4
*MM240	*MM240	*MM240
=1-	=1-	=1-
4FF/ 4F/	(4a-/ 4cc/	p
4GG/ 4G/	4en/ 4b-/	.
=2	=2	=2
4AA-\ 4A-\	4f/ 4a-/	.
4BB-\ 4B-\	4d-/) 4en/ 4g/	.
=3	=3	=3
4BBn'\ 4Bn'\	4A-'/ 4dn'/ 4f'/	.
4BB'\ 4B'\	4A-'/ 4d'/ 4f'/	.
=4	=4	=4
2C\ 2c\	2G/ 2en/	.
=5	=5	=5
4CC/ (4C/	4cc\ 4een\ (4gg\	f
4EEn/ 4En/	4g\ 4cc\ 4ee\)	.
=6	=6	=6
4GG\ 4G\	4en'/ 4g'/ 4cc'/	.
4C\ 4c\)	4e'/ 4g'/ 4cc'/	.
=7	=7	=7
4GG'/ 4G'/	4en'/ 4g'/ 4cc'/	.
4GGG'/ 4GG'/	4g'/ 4bn'/ 4ddn'/	.
=8	=8	=8
2CC/ 2C/	2g\ 2cc\ 2een\	.
=9:|!	=9:|!	=9:|!
*>X	*>X	*>X
*	*^	*
4CC/ 4C/	4gg/	4een\	f
4BBBn/ 4BBn/	4gg/	4ddn\	.
*	*v	*v	*
=10!|:	=10!|:	=10!|:
*>B	*>B	*>B
*	*^	*
[2CC/ [2C/	(4gg/	[2een\	.
.	4aa-/)	.	.
=11	=11	=11	=11
4CC/] 4C/]	4aa-'/	4ee\]	.
[4DD-/ [4D-/	4aa-'/	[4ff\	.
=12	=12	=12	=12
4DD-/] 4D-/]	[4aa-/	4ff\]	.
[4DDn/ [4Dn/	4bb-/	[4ff\ 4aa-\_	.
=13	=13	=13	=13
4DD/] 4D/]	4bb-'/	4ff\] 4aa-\]	.
[4EE-/ [4E-/	4bb-'/	[4ee-\ 4gg\	.
=14	=14	=14	=14
4EE-/] 4E-/]	4gg/ (4bb-/	2ee-\]	.
4AAA-/ 4AA-/	4aa-/ 4ccc/)	.	.
=15	=15	=15	=15
4DD-'/ 4D-'/	4bb-'/ 4ddd-'/	4ff\	.
4EE-'/ 4E-'/	4gg'/ 4bb-'/	4dd-\	.
=16	=16	=16	=16
2AA-/ 2A-/	2aa-/	2cc\	.
*	*v	*v	*
=17	=17	=17
4r	4a-/	p
4A-\ 4c\	(4a-/	.
=18	=18	=18
4B-\ 4d-\	8g/L	.
.	8f/J	.
4r	4e-/)	.
=19	=19	=19
4r	4a-/ 4cc/	.
4A-\ 4c\	(4a-/ 4cc/	.
=20	=20	=20
4B-\ 4d-\	8g/ 8b-/L	.
.	8f/ 8a-/J	.
4r	4e-/) 4g/	.
=21	=21	=21
4r	4cc\ 4ee-\	.
4AAA-/ 4AA-/	4cc\ (4ee-\	.
=22	=22	=22
4BBB-/ 4BB-/	4b-\ 4dd-\	.
4CC/ 4C/	4a-/ 4cc/	.
=23	=23	=23
4DD-/ 4D-/	4g/ 4b-/	.
4DDn/ 4Dn/	4a-/ 4cc/	.
=24	=24	=24
4EE-/ 4E-/	4g/ 4b-/	.
4EEn/ 4En/	4g/ 4cc/)	.
=25	=25	=25
4FF/ 4F/	4f/	.
4F\ 4A-\	(4f/	.
=26	=26	=26
4G\ 4B-\	8en/L	.
.	8dn/J	.
4r	4c/)	.
=27	=27	=27
4r	4f/ 4a-/	.
4F\ 4A-\	(4f/ 4a-/	.
=28	=28	=28
4G\ 4B-\	8en/ 8g/L	.
.	8dn/ 8f/J	.
4r	4c/) 4e/	.
=29	=29	=29
4r	4a-/ 4cc/	.
4FF\ 4F\	(4a-/ 4cc/	.
=30	=30	=30
4GG\ 4G\	4g/ 4b-/	.
4AA-\ 4A-\	4f/ 4a-/	.
=31	=31	=31
4BB-\ 4B-\	4en/ 4g/	.
4BBn\ 4Bn\	4f/ 4a-/	.
=32	=32	=32
2C\ 2c\	2en/) 2g/	.
=33	=33	=33
*^	*^	*
2A-/	2AA-\	4cc/	2f\	.
.	.	4cc/	.	.
*	*	*v	*v	*
=34	=34	=34	=34
4BB-/	2GG\	(4ddn\	.
4B-/	.	4gg\)	.
=35	=35	=35	=35
4A-/	2C\	(4ff'\	.
4G/	.	4een'\)	.
=36	=36	=36	=36
4F/	4D-\	4a-\ 4ff\	f
4F/	4BB-\	4dd-\ 4gg\	.
*v	*v	*	*
=37	=37	=37
2r	2r	.
=38	=38	=38
2r	2r	.
=39	=39	=39
4C'/ 4F'/	4cc'\ 4ff'\ 4aa-'\	.
4C'/ 4En'/	4cc'\ 4gg'\ 4ccc'\	.
=40	=40	=40
*>B1	*>B1	*>B1
4FF'/ 4F'/	4ff'\	.
[4CC/ [4C/	[4een\ [4gg\	.
=41	=41	=41
4CC/] 4C/]	4ee\] 4gg\]	.
4BBBn/ (4BBn/	4ddn\ 4gg\	.
=42:|!	=42:|!	=42:|!
*>B2	*>B2	*>B2
4FF/) 4F/	4ff'\	.
4r	[4fff\	.
=43	=43	=43
*>C	*>C	*>C
*k[b-e-a-d-g-]	*k[b-e-a-d-g-]	*k[b-e-a-d-g-]
4DD-/	(8fff\L]	f
.	8ccc\	.
4F\	8eee-\	.
.	8ddd-\J	.
=44	=44	=44
4r	8aa-\L	p
.	8ccc\	.
4A-\	8bb-\	.
.	8ggn\J	.
=45	=45	=45
4r	8bb-\L	.
.	8ff\	.
4F\	8aa-\	.
.	8gg-\J	.
=46	=46	=46
4r	8ee-\L	.
.	8gg-\	.
4A-\	8ff\	.
.	8dd-\J	.
=47	=47	=47
4r	8gg-\L	.
.	8ddn\	.
4c\	8ff\	.
.	8ee-\J	.
=48	=48	=48
4r	8bn\L	.
.	8dd-\	.
*clefG2	*	*
4ee-\	8cc\	.
.	8a-\J	.
=49	=49	=49
4r	8b-\L	.
.	8g-\	.
4ccc\	8b-\	.
.	8a-\J)	.
=50	=50	=50
4ddd-\	4f/	.
4r	(4ggg-\	.
*clefF4	*	*
=51	=51	=51
4DD-/	(8fff\L)	f
.	8ccc\	.
4F\	8eee-\	.
.	8ddd-\J	.
=52	=52	=52
4r	8aa-\L	p
.	8ccc\	.
4A-\	8bb-\	.
.	8ggn\J	.
=53	=53	=53
4r	8bb-\L	.
.	8ff\	.
4F\	8aa-\	.
.	8gg-\J	.
=54	=54	=54
4r	8ee-\L	.
.	8gg-\	.
4A-\	8ff\	.
.	8dd-\J	.
=55	=55	=55
4r	8ff\L	.
.	8cc\	.
*clefG2	*	*
4f/	8ee-\	.
.	8dd-\J	.
=56	=56	=56
4r	8a-\L	.
.	8dd-\	.
4ff\	8cc-\	.
.	8a-\J	.
=57	=57	=57
4r	8cc-\L	.
.	8a-\	.
4fff\	8cc-\	.
.	8an\J)	.
=58	=58	=58
4ggg-\	4b-\	.
4r	[4bbb-\	.
*clefF4	*	*
=59	=59	=59
4GG-/	(8bbb-\L]	.
.	8fff\	.
4B-\	8aaa-\	.
.	8ggg-\J	.
=60	=60	=60
4r	8ddd-\L	p
.	8fff\	.
4d-\	8eee-\	.
.	8cccn\J	.
=61	=61	=61
4r	8eee-\L	.
.	8bb-\	.
4B-\	8ddd-\	.
.	8ccc-\J	.
=62	=62	=62
4r	8aa-\L	.
.	8ccc-\	.
4d-\	8bb-\	.
.	8gg-\J	.
=63	=63	=63
4r	8ccc-\L	.
.	8ggn\	.
*clefG2	*	*
4f/	8bb-\	.
.	8aa-\J	.
=64	=64	=64
4r	8een\L	.
.	8gg-\	.
4aa-\	8ff\	.
.	8dd-\J	.
=65	=65	=65
4r	8ee-\L	.
.	8cc-\	.
4fff'\	8ee-\	.
.	8dd-\J)	.
=66	=66	=66
4ggg-\	4b-\	.
4r	[4bbb-\	.
*clefF4	*	*
=67	=67	=67
4GG-/	(8bbb-\L]	f
.	8fff\	.
4B-\	8aaa-\	.
.	8ggg-\J	.
=68	=68	=68
4r	8ddd-\L	p
.	8fff\	.
4d-\	8eee-\	.
.	8cccn\J	.
=69	=69	=69
4r	8eee-\L	.
.	8bb-\	.
4B-\	8ddd-\	.
.	8ccc-\J	.
=70	=70	=70
4r	8aa-\L	.
.	8ccc-\	.
4d-\	8bb-\	.
.	8gg-\J	.
=71	=71	=71
4r	8bb-\L	.
.	8ggn\	.
4F\ 4dn\	8bb-\	.
.	8aa-\J	.
=72	=72	=72
4r	8ff\L	.
.	8aa-\	.
*clefG2	*	*
4bb-\	8gg-\	.
.	8ee-\J	.
=73	=73	=73
4r	8ddn\L	.
.	8a-\	.
4dddn\	8cc-\	.
.	8b-\J)	.
=74	=74	=74
4eee-\	4g-/	.
4r	[4ggg-\	.
*clefF4	*	*
=75	=75	=75
4EE-/	(8ggg-\L]	.
.	8dddn\	.
4G-\	8fff\	.
.	8eee-\J)	.
=76	=76	=76
4r	4gg-'\	.
4CC/ 4AA-/ 4C/	4gg-\ 4eee-\ 4ggg-\	.
=77	=77	=77
4r	4ff'\	.
4DD-/ 4AA-/ 4D-/	4ff\ 4ddd-\ [4fff\	.
=78	=78	=78
4DD-/	(8fff\L]	f
.	8cccn\	.
4F\	8eee-\	.
.	8ddd-\J	.
=79	=79	=79
4r	8aa-\L	p
.	8ccc\	.
4A-\	8bb-\	.
.	8ggn\J	.
=80	=80	=80
4r	8bb-\L	.
.	8ff\	.
4F\	8aa-\	.
.	8gg-\J	.
=81	=81	=81
4r	8ee-\L	.
.	8gg-\	.
4A-\	8ff\	.
.	8dd-\J	.
=82	=82	=82
4r	8gg-\L	.
.	8ddn\	.
4c\	8ff\	.
.	8ee-\J	.
=83	=83	=83
4r	8bn\L	.
.	8dd-\	.
*clefG2	*	*
4ee-\	8cc\	.
.	8a-\J	.
=84	=84	=84
4r	8b-\L	.
.	8g-\	.
4ccc\	8b-\	.
.	8a-\J)	.
=85	=85	=85
4ddd-\	4f/	p
4r	[4ff\	.
*clefF4	*	*
=86	=86	=86
4DD-/	(8ff\L]	>
.	8cc\	.
4F\	8ee-\	.
.	8dd-\J	.
=87	=87	=87
4r	8a-\L	.
.	8cc\	.
4A-\	8b-\	.
.	8gn\J	.
=88	=88	=88
4r	8b-/L	.
.	8f/	.
4F\	8a-/	.
.	8g-/J	.
=89	=89	=89
4r	8e-/L	.
.	8g-/	.
4A-\	8f/	.
.	8d-/J	.
=90	=90	=90
4r	8g-/L	.
.	8dn/	.
4c\	8f/	.
.	8e-/J	.
=91	=91	=91
4r	8Bn/L	.
.	8d-/	.
*clefG2	*	*
4ee-\	8c/	.
.	8A-/J	.
*	*clefF4	*clefF4
=92	=92	=92
4r	8B-\L	.
.	8G-\	.
4ccc\	8B-\	.
.	8A-\J	.
=93	=93	=93
4r	8E-\L	pp
.	8G-\	.
4ddd-\	8F\	.
.	8D-\J)	.
*clefF4	*	*
=94	=94	=94
(8F\L	2r	.
8C\	.	.
8E-\	.	.
8D-\J)	.	.
*	*clefG2	*clefG2
=95	=95	=95
2r	(8f/L	.
.	8c/	.
.	8e-/	.
.	8d-/J)	.
*clefG2	*	*
=96	=96	=96
(8f/L	2r	.
8c/	.	.
8e-/	.	.
8d-/J)	.	.
=97	=97	=97
2r;	8ff\L	.
.	8cc\	.
.	8ee-\	.
.	8dd-;\J	.
*clefF4	*	*
=98	=98	=98
*k[b-e-a-d-]	*k[b-e-a-d-]	*k[b-e-a-d-]
4FF\ 4F\	(4a-/ 4cc/	p
4GG\ 4G\	4en/ 4b-/	.
=99	=99	=99
4AA-\ 4A-\	4f/ 4a-/	.
4BB-\ 4B-\	4d-/) 4en/ 4g/	.
=100	=100	=100
4BBn'\ 4Bn'\	4A-'/ 4dn'/ 4f'/	.
4BB'\ 4B'\	4A-'/ 4d'/ 4f'/	.
=101	=101	=101
2C\ 2c\	2G/ 2en/	.
=102	=102	=102
4CC/ (4C/	4cc\ 4een\ (4gg\	f
4EEn/ 4En/	4g\ 4cc\ 4ee\)	.
=103	=103	=103
4GG\ 4G\	4en'/ 4g'/ 4cc'/	.
4C\ 4c\)	4e'/ 4g'/ 4cc'/	.
=104	=104	=104
4GG'/ 4G'/	4en'/ 4g'/ 4cc'/	.
4GGG'/ 4GG'/	4g'/ 4bn'/ 4ddn'/	.
=105	=105	=105
2CC/ 2C/	2g\ 2cc\ 2een\	.
=106	=106	=106
4FF\ 4F\	(4a-/ 4cc/	p
4GG\ 4G\	4en/ 4b-/	.
=107	=107	=107
4AA-\ 4A-\	4f/ 4a-/	.
4BB-\ 4B-\	4d-/) 4en/ 4g/	.
=108	=108	=108
4BBn'\ 4Bn'\	4A-'/ 4dn'/ 4f'/	.
4BB'\ 4B'\	4A-'/ 4d'/ 4f'/	.
=109	=109	=109
2C\ 2c\	2G/ 2en/	.
=110	=110	=110
4CC/ (4C/	4cc\ 4een\ (4gg\	f
4EEn/ 4En/	4g\ 4cc\ 4ee\)	.
=111	=111	=111
4GG\ 4G\	4en'/ 4g'/ 4cc'/	.
4C\ 4c\)	4e'/ 4g'/ 4cc'/	.
=112	=112	=112
4GG'/ 4G'/	4en'/ 4g'/ 4cc'/	.
4GGG'/ 4GG'/	4g'/ 4bn'/ 4ddn'/	.
=113	=113	=113
2CC/ 2C/	2g\ 2cc\ 2een\	.
=114	=114	=114
*	*^	*
4CC/ 4C/	4gg/	4een\	f
4BBBn/ 4BBn/	4gg/	4ddn\	.
*	*v	*v	*
=115!|:	=115!|:	=115!|:
*>D	*>D	*>D
*	*^	*
[2CC/ [2C/	(4gg/	[2een\	.
.	4aa-/)	.	.
=116	=116	=116	=116
4CC/] 4C/]	4aa-'/	4ee\]	.
[4DD-/ [4D-/	4aa-'/	[4ff\	.
=117	=117	=117	=117
4DD-/] 4D-/]	(4aa-/	4ff\]	.
[4DDn/ [4Dn/	4bb-/)	(4ff\ [4aa-\	.
=118	=118	=118	=118
4DD/] 4D/]	4bb-/)	4ff\ 4aa-\]	.
[4EE-/ [4E-/	4bb-/	[4ee-\ 4gg\	.
=119	=119	=119	=119
4EE-/] 4E-/]	4gg/ (4bb-/	2ee-\]	.
4AAA-/ 4AA-/	4aa-/ 4ccc/)	.	.
=120	=120	=120	=120
4DD-'/ 4D-'/	4bb-'/ 4ddd-'/	4ff\	.
4EE-'/ 4E-'/	4gg'/ 4bb-'/	4dd-\	.
*	*v	*v	*
=121	=121	=121
2AA-/ 2A-/	2cc\ 2aa-\	.
=122	=122	=122
4r	4a-/	p
4A-\ 4c\	(4a-/	.
=123	=123	=123
4B-\ 4d-\	8g/L	.
.	8f/J	.
4r	4e-/)	.
=124	=124	=124
4r	4a-/ 4cc/	.
4A-\ 4c\	(4a-/ 4cc/	.
=125	=125	=125
4B-\ 4d-\	8g/ 8b-/L	.
.	8f/ 8a-/J	.
4r	4e-/) 4g/	.
=126	=126	=126
4r	4cc\ 4ee-\	.
4AAA-/ 4AA-/	4cc\ (4ee-\	.
=127	=127	=127
4BBB-/ 4BB-/	4b-\ 4dd-\	.
4CC/ 4C/	4a-/ 4cc/	.
=128	=128	=128
4DD-/ 4D-/	4g/ 4b-/	.
4DDn/ 4Dn/	4a-/ 4cc/	.
=129	=129	=129
4EE-/ 4E-/	4g/ 4b-/	.
4EEn/ 4En/	4g/ 4cc/)	.
=130	=130	=130
4FF/ 4F/	4f/	.
4F\ 4A-\	(4f/	.
=131	=131	=131
4G\ 4B-\	8en/L	.
.	8dn/J	.
4r	4c/)	.
=132	=132	=132
4r	4f/ 4a-/	.
4F\ 4A-\	(4f/ 4a-/	.
=133	=133	=133
4G\ 4B-\	8en/ 8g/L	.
.	8dn/ 8f/J	.
4r	4c/) 4e/	.
=134	=134	=134
4r	4a-/ 4cc/	.
4FF\ 4F\	(4a-'/ 4cc'/	.
=135	=135	=135
4GG\ 4G\	4g/ 4b-/	.
4AA-\ 4A-\	4f/ 4a-/	.
=136	=136	=136
4BB-\ 4B-\	4en/ 4g/	.
4BBn\ 4Bn\	4f/) 4a-/	.
=137	=137	=137
2C\ 2c\	2en/ 2g/	.
=138	=138	=138
*^	*^	*
2A-/	2AA-\	4cc/	2f\	.
.	.	4cc/	.	.
*	*	*v	*v	*
=139	=139	=139	=139
4BB-/	2GG\	(4ddn\	.
4B-/	.	4gg\)	.
=140	=140	=140	=140
4A-/	2C\	(4ff'\	.
4G/	.	4een'\)	.
=141	=141	=141	=141
[4F/	(4D-\	4a-\ (4ff\	ff
4F/]	4BB-\)	4dd-\ 4gg\)	.
*v	*v	*	*
=142	=142	=142
2r	2r	.
=143	=143	=143
2r	2r	.
=144	=144	=144
4C'/ 4F'/	4cc'\ 4ff'\ 4aa-'\	.
4C'/ 4En'/	4cc'\ 4gg'\ 4ccc'\	.
=145	=145	=145
*>D1	*>D1	*>D1
4FF/ 4F/	4ff\	.
[4CC/ [4C/	[4een\ [4gg\	.
=146	=146	=146
4CC/] 4C/]	4ee\] 4gg\]	.
4BBBn/ 4BBn/	4ddn\ 4gg\	.
=147:|!	=147:|!	=147:|!
*>D2	*>D2	*>D2
4FF/ 4F/	4a-\ 4cc\ 4ff\	.
4r	4r	.
=148	=148	=148
*>E	*>E	*>E
2FF/ 2C/ 2F/	2a-\ 2cc\ 2ff\	f
=149	=149	=149
2r	2r	.
=150	=150	=150
2EEn/ 2C/ 2En/	2g\ 2cc\ 2gg\	.
=151	=151	=151
2r	2r	.
=152	=152	=152
2FF/ 2C/ 2F/	2a-\ 2cc\ 2ff\ 2aa-\	.
=153	=153	=153
2r	2r	.
=154	=154	=154
2BBB-/ 2BB-/	2dd-\ 2ff\ 2bb-\ 2ddd-\	.
=155	=155	=155
2r	2r	.
=156	=156	=156
2CC/ 2C/	2cc\ 2ff\ 2aa-\ 2ccc\	>
=157	=157	=157
2r	2r	.
=158	=158	=158
2CC/ 2C/	2cc\ 2een\ 2gg\ 2ccc\	.
=159	=159	=159
8FFF/L	[2cc\ [2ff\ [2aan\ [2ccc\	p
8CC/	.	.
8AAAn/	.	.
8FF/J	.	.
=160	=160	=160
8CC/L	2cc\_ 2ff\_ 2aa\_ 2ccc\_	.
8AAn/	.	.
8FF/	.	.
8C/J	.	.
=161	=161	=161
8AAn\L	2cc\_ 2ff\_ 2aa\_ 2ccc\_	.
8F\	.	.
8C\	.	.
8An\J	.	.
=162	=162	=162
8F\L	2cc\] 2ff\] 2aa\] 2ccc\]	.
8c\	.	.
8An\	.	.
8f;\J	.	.
==	==	==
*-	*-	*-
!!!ENC: Craig Stuart Sapp
!!!END: 2005/08/27/
